icons/paintbrush.svg

<?xml version="1.0" encoding="UTF-8"?><svg xmlns="http://www.w3.org/2000/svg" viewBox="0 0 50 50"><g id="uuid-40da6195-163b-4286-9f40-a75fc05f07fd"><path d="M48.87,3.08c-.58-.58-1.92-.74-7.13,3.22-3.59,2.72-8.02,6.68-12.47,11.13-.14,.14-11.72,11.77-14.17,17.2-1.45-.8-3.23-1.01-4.7-.47-1.53,.56-2.19,1.73-3.11,3.35-.36,.63-.76,1.35-1.28,2.14-1.45,2.22-3.28,4.28-5.45,6.1-.16,.13-.22,.35-.15,.54,.07,.2,.24,.33,.45,.34,.86,.05,1.69,.07,2.5,.07,7.91,0,13.63-2.14,14.56-5.57,.32-1.17,.17-2.83-.6-4.26,1.05-.49,2.54-1.41,4.72-3.06,3.59-2.72,8.02-6.68,12.47-11.13s8.41-8.89,11.13-12.47c3.96-5.21,3.8-6.55,3.22-7.13ZM24.33,24.24l3.38,3.38s.06,.04,.1,.07c-1.03,.93-2,1.78-2.92,2.55l-3.16-3.16s-.02,0-.02-.01c.77-.91,1.63-1.89,2.56-2.92,.02,.03,.04,.07,.07,.1Zm-7.36,16.63c-.84,3.11-6.84,5.04-14.8,4.81,1.83-1.67,3.41-3.51,4.69-5.49,.54-.82,.95-1.55,1.31-2.2,.87-1.54,1.39-2.47,2.58-2.91,1.59-.58,3.67-.08,4.93,1.21,1.28,1.3,1.62,3.33,1.28,4.57Zm-.19-4.82c-.12-.15-.24-.31-.38-.45-.15-.16-.33-.3-.5-.43,.64-1.4,2.34-3.92,5.17-7.34l3.05,3.05c-3.43,2.83-5.95,4.53-7.34,5.18Zm17.03-14.08c-1.89,1.89-3.66,3.58-5.3,5.08-.02-.05-.05-.1-.09-.14l-3.38-3.38s-.09-.07-.14-.09c1.5-1.64,3.19-3.41,5.08-5.3C39.93,8.19,46.6,3.75,47.99,3.75c.07,0,.13,.01,.17,.04,.49,.89-3.88,7.73-14.35,18.2Z"/></g><g id="uuid-937f1e40-86c0-4cd6-bc7e-8003b223dd69"><text transform="translate(-.1 54.84)" font-family="Roboto-Regular, Roboto" font-size="6"><tspan x="0" y="0">paint brush</tspan></text></g></svg>

<svg xmlns="http://www.w3.org/2000/svg" viewBox="0 0 50 50"><g id="e1c1b0ca-38fe-4698-bcfd-f8acf7c501c3" data-name="ICONS"><path d="M48.87,3.08C48.29,2.5,47,2.34,41.74,6.3A131.41,131.41,0,0,0,29.27,17.43c-.14.15-11.72,11.77-14.17,17.2a5.79,5.79,0,0,0-4.69-.47c-1.53.57-2.19,1.74-3.11,3.35C7,38.14,6.54,38.86,6,39.66a27.88,27.88,0,0,1-5.45,6.1.51.51,0,0,0-.15.54.51.51,0,0,0,.45.34c.85,0,1.69.07,2.5.07,7.91,0,13.64-2.14,14.56-5.57a6.07,6.07,0,0,0-.6-4.26,27.38,27.38,0,0,0,4.72-3.06A130.44,130.44,0,0,0,34.52,22.68,129.24,129.24,0,0,0,45.66,10.21C49.62,5,49.46,3.66,48.87,3.08ZM24.33,24.24l3.38,3.38.1.07c-1,.92-2,1.78-2.91,2.55l-3.17-3.16,0,0c.77-.91,1.63-1.89,2.56-2.92A.53.53,0,0,0,24.33,24.24ZM17,40.87c-.84,3.11-6.84,5.05-14.8,4.82A28.16,28.16,0,0,0,6.86,40.2c.54-.82.95-1.55,1.31-2.19.87-1.54,1.4-2.47,2.58-2.91a4.91,4.91,0,0,1,4.94,1.21A5.11,5.11,0,0,1,17,40.87Zm-.19-4.81a5.45,5.45,0,0,0-.38-.46,5.34,5.34,0,0,0-.5-.43,41,41,0,0,1,5.17-7.34l3.05,3.05A40.66,40.66,0,0,1,16.78,36.06ZM33.81,22c-1.89,1.89-3.66,3.57-5.3,5.07a.55.55,0,0,0-.09-.14L25,23.53a.42.42,0,0,0-.14-.09Q27.15,21,30,18.14c10-10,16.62-14.39,18-14.39a.4.4,0,0,1,.17,0C48.65,4.67,44.28,11.51,33.81,22Z"/></g><g id="ab2fd726-21ba-4e5e-beee-d4414af50840" data-name="LABELS"><text transform="translate(-0.1 54.84)" font-size="6" font-family="Roboto-Regular, Roboto">paint brush</text></g></svg>
